icons/midnadark/places/32/folder-wifi.svg

<?xml version="1.0" encoding="UTF-8" standalone="no"?>
<!-- Created with Inkscape (http://www.inkscape.org/) -->

<svg
   xmlns:dc="http://purl.org/dc/elements/1.1/"
   xmlns:cc="http://creativecommons.org/ns#"
   xmlns:rdf="http://www.w3.org/1999/02/22-rdf-syntax-ns#"
   xmlns:svg="http://www.w3.org/2000/svg"
   xmlns="http://www.w3.org/2000/svg"
   xmlns:xlink="http://www.w3.org/1999/xlink"
   xmlns:sodipodi="http://sodipodi.sourceforge.net/DTD/sodipodi-0.dtd"
   xmlns:inkscape="http://www.inkscape.org/namespaces/inkscape"
   width="32"
   height="32"
   id="svg5453"
   version="1.1"
   inkscape:version="0.91 r13725"
   sodipodi:docname="server-database.svg">
  <defs
     id="defs5455">
    <linearGradient
       inkscape:collect="always"
       xlink:href="#linearGradient4193"
       id="linearGradient4534"
       x1="59.12455"
       y1="-13.294993"
       x2="59.148849"
       y2="-37.783325"
       gradientUnits="userSpaceOnUse"
       gradientTransform="matrix(4.1747839,0,0,4.1676538,-1069.6998,447.73055)" />
    <linearGradient
       inkscape:collect="always"
       id="linearGradient4193">
      <stop
         style="stop-color:#289bf7;stop-opacity:1"
         offset="0"
         id="stop4195" />
      <stop
         style="stop-color:#71b9f1;stop-opacity:1"
         offset="1"
         id="stop4197" />
    </linearGradient>
    <linearGradient
       gradientTransform="matrix(7.9277484,0,0,7.9277484,-1273.2754,-154.3544)"
       gradientUnits="userSpaceOnUse"
       y2="64.160583"
       x2="71.801933"
       y1="101.17968"
       x1="72.161911"
       id="linearGradient4284-7-0"
       xlink:href="#linearGradient4314"
       inkscape:collect="always" />
    <linearGradient
       inkscape:collect="always"
       id="linearGradient4314">
      <stop
         style="stop-color:#9fd2fa;stop-opacity:1"
         offset="0"
         id="stop4316" />
      <stop
         style="stop-color:#cde8fe;stop-opacity:1"
         offset="1"
         id="stop4318" />
    </linearGradient>
    <linearGradient
       gradientTransform="matrix(7.9277471,0,0,7.9277471,-2010.8435,-3045.4453)"
       gradientUnits="userSpaceOnUse"
       y2="428.6745"
       x2="177.81706"
       y1="467.90091"
       x1="179.09601"
       id="linearGradient4284-7-0-1"
       xlink:href="#linearGradient4308"
       inkscape:collect="always" />
    <linearGradient
       id="linearGradient4308"
       inkscape:collect="always">
      <stop
         id="stop4310"
         offset="0"
         style="stop-color:#289bf7;stop-opacity:1" />
      <stop
         id="stop4312"
         offset="1"
         style="stop-color:#4caaf4;stop-opacity:1" />
    </linearGradient>
    <linearGradient
       inkscape:collect="always"
       xlink:href="#linearGradient4308"
       id="linearGradient4186"
       x1="16"
       y1="24"
       x2="16"
       y2="12"
       gradientUnits="userSpaceOnUse" />
  </defs>
  <sodipodi:namedview
     id="base"
     pagecolor="#ffffff"
     bordercolor="#666666"
     borderopacity="1.0"
     inkscape:pageopacity="0"
     inkscape:pageshadow="2"
     inkscape:zoom="15"
     inkscape:cx="3.033333"
     inkscape:cy="16.948198"
     inkscape:document-units="px"
     inkscape:current-layer="layer1"
     showgrid="true"
     fit-margin-top="0"
     fit-margin-left="0"
     fit-margin-right="0"
     fit-margin-bottom="0"
     inkscape:window-width="1366"
     inkscape:window-height="685"
     inkscape:window-x="0"
     inkscape:window-y="0"
     inkscape:window-maximized="1"
     inkscape:showpageshadow="false"
     borderlayer="true"
     showguides="true"
     inkscape:guide-bbox="true"
     inkscape:object-nodes="true"
     inkscape:snap-bbox="true">
    <inkscape:grid
       type="xygrid"
       id="grid4063" />
    <sodipodi:guide
       position="2.0000117,30.000026"
       orientation="28,0"
       id="guide4167" />
    <sodipodi:guide
       position="17,5"
       orientation="0,28"
       id="guide4169" />
    <sodipodi:guide
       position="30.000012,2.0000264"
       orientation="-28,0"
       id="guide4171" />
    <sodipodi:guide
       position="30.000012,30.000026"
       orientation="0,-28"
       id="guide4173" />
    <sodipodi:guide
       position="2.0000117,30.000026"
       orientation="28,0"
       id="guide4181" />
    <sodipodi:guide
       position="16.000012,30.000026"
       orientation="0,-14"
       id="guide4187" />
    <sodipodi:guide
       position="5.0000117,30.000026"
       orientation="28,0"
       id="guide4143" />
    <sodipodi:guide
       position="5.0000117,2.0000264"
       orientation="0,22"
       id="guide4145" />
    <sodipodi:guide
       position="27.000012,2.0000264"
       orientation="-28,0"
       id="guide4147" />
    <sodipodi:guide
       position="27.000012,30.000026"
       orientation="0,-22"
       id="guide4149" />
    <sodipodi:guide
       position="27,30"
       orientation="0,-7"
       id="guide4155" />
    <sodipodi:guide
       position="27.00001,23"
       orientation="-7,-1e-05"
       id="guide4162" />
    <sodipodi:guide
       position="24,27"
       orientation="0,1"
       id="guide3378" />
  </sodipodi:namedview>
  <metadata
     id="metadata5458">
    <rdf:RDF>
      <cc:Work
         rdf:about="">
        <dc:format>image/svg+xml</dc:format>
        <dc:type
           rdf:resource="http://purl.org/dc/dcmitype/StillImage" />
        <dc:title />
      </cc:Work>
    </rdf:RDF>
  </metadata>
  <g
     inkscape:label="Capa 1"
     inkscape:groupmode="layer"
     id="layer1"
     transform="translate(-384.57143,-515.798)">
    <g
       transform="matrix(0.07088627,0,0,0.07016952,407.86666,475.12785)"
       style="display:inline;fill:#60aae5;fill-opacity:1"
       id="g4721">
      <path
         style="color:#000000;display:inline;overflow:visible;visibility:visible;fill:url(#linearGradient4534);fill-opacity:1;fill-rule:nonzero;stroke:none;stroke-width:0.99992168;stroke-opacity:1;marker:none;enable-background:accumulate"
         id="rect8678-4-5-5-9"
         inkscape:connector-curvature="0"
         d="m -884.09987,294.78348 c -4.62566,0 -8.34918,3.71755 -8.34918,8.33531 l 0,161.40825 468.19182,1.00001 0,-121.19727 c 0,-4.61776 -3.7239,-8.3353 -8.34956,-8.3353 l -272.65225,0 c -8.5104,0.75134 -9.60667,-0.37701 -13.8121,-5.98088 -5.9637,-7.96762 -14.96889,-21.44253 -20.83998,-29.21462 -4.71246,-6.80467 -5.47678,-6.0155 -13.29224,-6.0155 z"
         sodipodi:nodetypes="scccssccccs"
         transform="matrix(0.78720228,0,0,0.79524319,415.34217,430.10746)" />
      <rect
         style="opacity:1;fill:url(#linearGradient4284-7-0);fill-opacity:1;stroke:url(#linearGradient4284-7-0);stroke-width:2.37832451;stroke-linecap:butt;stroke-linejoin:miter;stroke-miterlimit:4;stroke-dasharray:none;stroke-opacity:1"
         id="rect4158-4-0"
         width="463.84714"
         height="295.12872"
         x="-890.27637"
         y="356.84882"
         ry="9.629776"
         transform="matrix(0.78720228,0,0,0.79524319,415.34217,430.10746)" />
      <rect
         style="opacity:1;fill:none;fill-opacity:1;stroke:url(#linearGradient4284-7-0-1);stroke-width:5.37616777;stroke-linecap:round;stroke-linejoin:round;stroke-miterlimit:4;stroke-dasharray:none;stroke-opacity:1"
         id="rect4158-4-0-3"
         width="463.84711"
         height="295.12872"
         x="-890.27631"
         y="356.84882"
         ry="9.629776"
         transform="matrix(0.78720228,0,0,0.79524319,415.34217,430.10746)" />
    </g>
    <g
       transform="matrix(0.98007678,0,0,0.98007678,373.08538,514.94987)"
       id="g4162"
       style="fill:#4d4d4d;fill-opacity:1">
      <path
         style="fill:url(#linearGradient4186);fill-opacity:1"
         d="m 16,12 c -3.184196,0 -6.1781262,1.240625 -8.4296875,3.492188 l 1.2851563,1.285156 C 10.763636,14.869178 13.301467,13.818359 16,13.818359 c 2.698591,0 5.236365,1.050819 7.144531,2.958985 l 1.285157,-1.285156 C 22.178239,13.240625 19.184197,12 16,12 Z m 0,3.230469 c -2.321615,0 -4.504956,0.903337 -6.1464844,2.544922 l 1.2871094,1.285156 C 12.438814,17.762359 14.164047,17.046875 16,17.046875 c 1.835897,0 3.561299,0.715426 4.859375,2.013672 l 1.287109,-1.285156 C 20.505012,16.133806 18.321616,15.230469 16,15.230469 Z m 0,3.232422 c -1.45807,0 -2.828505,0.566672 -3.859375,1.597656 l 1.285156,1.287109 C 14.113255,20.660069 15.02765,20.28125 16,20.28125 c 0.972235,0 1.886745,0.378819 2.574219,1.066406 l 1.285156,-1.287109 C 18.828448,19.02962 17.457955,18.462891 16,18.462891 Z m 0,3.611328 c -0.472425,0 -0.94419,0.180632 -1.304688,0.541015 -0.01261,0.01261 -0.02495,0.02622 -0.03711,0.03906 L 16,24 17.345703,22.658203 c -0.01324,-0.01414 -0.02727,-0.02922 -0.04102,-0.04297 C 16.944303,22.254794 16.472368,22.074219 16,22.074219 Z"
         transform="matrix(0.90779895,0,0,0.90779895,13.520013,2.9538779)"
         id="path4791-9-1-3"
         inkscape:connector-curvature="0" />
    </g>
  </g>
</svg>

<svg xmlns="http://www.w3.org/2000/svg" xmlns:xlink="http://www.w3.org/1999/xlink" viewBox="0 0 32 32"><defs><linearGradient id="3"><stop stop-color="#289bf7"/><stop offset="1" stop-color="#4caaf4"/></linearGradient><linearGradient xlink:href="#3" id="4" y1="24" x2="0" y2="12" gradientUnits="userSpaceOnUse"/><linearGradient gradientUnits="userSpaceOnUse" y2="352.98" x2="-601.15" y1="663.95" x1="-591.02" id="2" xlink:href="#3"/><linearGradient id="0" x1="59.12" y1="-13.295" x2="59.15" y2="-37.783" gradientUnits="userSpaceOnUse" gradientTransform="matrix(4.17478 0 0 4.16765-1069.7 447.73)"><stop stop-color="#289bf7"/><stop offset="1" stop-color="#71b9f1"/></linearGradient><linearGradient gradientUnits="userSpaceOnUse" y2="354.29" x2="-704.05" y1="647.77" x1="-701.19" id="1"><stop stop-color="#9fd2fa"/><stop offset="1" stop-color="#cde8fe"/></linearGradient></defs><g transform="translate(-384.57-515.8)"><g transform="matrix(.07089 0 0 .07017 407.87 475.13)" fill="#60aae5"><path d="m-884.1 294.78c-4.626 0-8.349 3.718-8.349 8.335v161.41l468.19 1v-121.2c0-4.618-3.724-8.335-8.35-8.335h-272.65c-8.51.751-9.607-.377-13.812-5.981-5.964-7.968-14.969-21.443-20.84-29.21-4.712-6.805-5.477-6.02-13.292-6.02z" transform="matrix(.7872 0 0 .79524 415.34 430.11)" fill="url(#0)" color="#000"/><rect width="463.85" height="295.13" x="-890.28" y="356.85" transform="matrix(.7872 0 0 .79524 415.34 430.11)" fill="url(#1)" stroke="url(#1)" stroke-width="2.378" rx="9.63"/><rect width="463.85" height="295.13" x="-890.28" y="356.85" transform="matrix(.7872 0 0 .79524 415.34 430.11)" fill="none" stroke="url(#2)" stroke-linejoin="round" stroke-linecap="round" stroke-width="5.376" rx="9.63"/></g><path d="m16 12c-3.184 0-6.178 1.241-8.43 3.492l1.285 1.285c1.908-1.908 4.446-2.959 7.145-2.959 2.699 0 5.236 1.051 7.145 2.959l1.285-1.285c-2.251-2.252-5.245-3.492-8.43-3.492m0 3.23c-2.322 0-4.505.903-6.146 2.545l1.287 1.285c1.298-1.298 3.02-2.01 4.859-2.01 1.836 0 3.561.715 4.859 2.01l1.287-1.285c-1.641-1.642-3.825-2.545-6.146-2.545m0 3.232c-1.458 0-2.829.567-3.859 1.598l1.285 1.287c.687-.688 1.602-1.066 2.574-1.066.972 0 1.887.379 2.574 1.066l1.285-1.287c-1.031-1.031-2.401-1.598-3.859-1.598m0 3.611c-.472 0-.944.181-1.305.541-.013.013-.025.026-.037.039l1.342 1.346 1.346-1.342c-.013-.014-.027-.029-.041-.043-.36-.36-.832-.541-1.305-.541" transform="matrix(.88971 0 0 .88971 386.34 517.84)" fill="url(#4)"/></g></svg>
